packages/kaspersky-hexa-ui-icons/src/iconsSVGs/24/BookmarkOutline.svg

<svg xmlns="http://www.w3.org/2000/svg" width="24" height="24" fill="none" viewBox="0 0 24 24"><path fill="#000" fill-rule="evenodd" d="M7 5v12.915l3.6238-2.9054a2.2 2.2 0 0 1 2.7524 0L17 17.915V5zM6 3c-.5523 0-1 .4477-1 1v15.9985c0 .839.971 1.3051 1.6255.7802L11.875 16.57a.2.2 0 0 1 .2502 0l5.2494 4.2087c.6546.5249 1.6255.0588 1.6255-.7802V4c0-.5523-.4477-1-1-1z"/></svg>

<svg width="24" height="24" viewBox="0 0 24 24" fill="none" xmlns="http://www.w3.org/2000/svg">
<path fill-rule="evenodd" clip-rule="evenodd" d="M7 5V17.915L10.6238 15.0096C11.428 14.3648 12.572 14.3648 13.3762 15.0096L17 17.915V5H7ZM6 3C5.44772 3 5 3.44771 5 4V19.9985C5 20.8375 5.97094 21.3036 6.62553 20.7787L11.8749 16.57C11.948 16.5114 12.052 16.5114 12.1251 16.57L17.3745 20.7787C18.0291 21.3036 19 20.8375 19 19.9985V4C19 3.44772 18.5523 3 18 3H6Z" fill="black"/>
</svg>
